public/bulle1.svg

<svg width="399" height="162" viewBox="0 0 399 162" fill="none" xmlns="http://www.w3.org/2000/svg">
<g clip-path="url(#clip0_9231_91833)">
<path d="M-212.997 112.352V242.343C-212.997 278.189 -179.353 307.347 -137.993 307.347V356.095C-137.993 362.661 -133.423 368.587 -126.427 371.101C-124.089 371.939 -121.664 372.35 -119.238 372.35C-114.351 372.35 -109.57 370.705 -105.984 367.582L-36.4842 307.348H86.9964C128.356 307.348 162 278.19 162 242.345V112.353C162 76.508 128.356 47.3501 86.9964 47.3501H-137.996C-179.356 47.3501 -212.997 76.5068 -212.997 112.352Z" fill="#009372"/>
</g>
<defs>
<clipPath id="clip0_9231_91833">
<rect width="399" height="162" fill="white"/>
</clipPath>
</defs>
</svg>

<svg xmlns="http://www.w3.org/2000/svg" width="399" height="162" fill="none"><g clip-path="url(#a)"><path fill="#009372" d="M-212.997 112.352v129.991c0 35.846 33.644 65.004 75.004 65.004v48.748c0 6.566 4.57 12.492 11.566 15.006a21.3 21.3 0 0 0 7.189 1.249c4.887 0 9.668-1.645 13.254-4.768l69.5-60.234h123.48c41.36 0 75.004-29.158 75.004-65.003V112.353c0-35.845-33.644-65.003-75.004-65.003h-224.992c-41.36 0-75.001 29.157-75.001 65.002"/></g><defs><clipPath id="a"><path fill="#fff" d="M0 0h399v162H0z"/></clipPath></defs></svg>
